X:1
T:Eversley, CM
T:Eversley, CM
T:Arthur Cottman, 1875
T:Public Domain Courtesy of the Cyber Hymnal™
C:Arthur Cottman, 1875
Z:Public Domain
Z:Courtesy of the Cyber Hymnal™
%%score ( 1 2 ) ( 3 4 )
L:1/8
Q:1/4=110
M:4/4
K:G
V:1 treble 
V:2 treble 
V:3 bass 
V:4 bass 
V:1
 D2 | [GB]2 [Fd]2 G2 [DG]2 | [^DF]2 E2 [B,=D]2 [CD]2 | [CG]2 [DB]2 [EA]2 [EG]2 | [DF]6 A2 | %5
 [^DB]2 [FA]2 [EG]2 [=FB]2 | [Ee]2 [=Fd]2 [Ec]2 [EA]2 | [DG]2 (FE) [CF]2 [CD]2 | [B,G]6 |] %9
V:2
 D2 | x4 G2 x2 | x2 E2 x4 | x8 | x6 (FE) | x8 | x8 | x2 C2 x4 | x6 |] %9
V:3
 D,2 | [G,,D]2 [D,C]2 [E,B,]2 [B,,G,]2 | [C,A,]2 [C,G,]2 G,2 [F,A,]2 | G,2 [B,,G,]2 [C,E,]2 (CB,) | %4
 [D,A,]6 D,2 | [B,,F,]2 [^D,C]2 [E,B,]2 [=D,=D]2 | [C,G,]2 [C,^G,]2 [C,A,]2 [C,C]2 | %7
 [D,B,]2 (A,G,) [D,A,]2 [D,F,]2 | [G,,G,]6 |] %9
V:4
 D,2 | x8 | x4 G,2 x2 | G,2 x2 C,2 x2 | x6 (D,C,) | x8 | x8 | x2 D,2 x4 | x6 |] %9

